svgs/google_play_store.svg

<?xml version="1.0" encoding="UTF-8" standalone="no"?>
<svg
   width="24"
   height="24"
   viewBox="0 0 24 24"
   fill="none"
   version="1.1"
   id="svg10"
   sodipodi:docname="google_play_store.svg"
   inkscape:version="1.2.1 (9c6d41e410, 2022-07-14)"
   xmlns:inkscape="http://www.inkscape.org/namespaces/inkscape"
   xmlns:sodipodi="http://sodipodi.sourceforge.net/DTD/sodipodi-0.dtd"
   xmlns="http://www.w3.org/2000/svg"
   xmlns:svg="http://www.w3.org/2000/svg">
  <defs
     id="defs14" />
  <sodipodi:namedview
     id="namedview12"
     pagecolor="#ffffff"
     bordercolor="#000000"
     borderopacity="0.25"
     inkscape:showpageshadow="2"
     inkscape:pageopacity="0.0"
     inkscape:pagecheckerboard="0"
     inkscape:deskcolor="#d1d1d1"
     showgrid="true"
     inkscape:zoom="39.333333"
     inkscape:cx="10.474576"
     inkscape:cy="12.101695"
     inkscape:window-width="3072"
     inkscape:window-height="1694"
     inkscape:window-x="-11"
     inkscape:window-y="-11"
     inkscape:window-maximized="1"
     inkscape:current-layer="svg10">
    <inkscape:grid
       type="xygrid"
       id="grid1041" />
  </sodipodi:namedview>
  <g
     id="g1039"
     transform="matrix(1,0,0,1.0018606,-1.00244,-0.00375567)">
    <path
       d="M 16.1116,7.27313 7.52424,2.3255 C 7.2274,2.15617 6.89688,2.05402 6.55608,2.02627 6.21528,1.99852 5.87253,2.04585 5.5521,2.16491 5.23166,2.28396 4.94138,2.47184 4.70181,2.71523 4.66813,2.74945 4.63556,2.78465 4.60415,2.82077 l 7.97995,7.97993 z"
       fill="#FFF1C0"
       id="path2"
       style="fill:#000000" />
    <path
       d="m 17.4566,8.0495 -3.8119,3.8119 3.979,3.979 3.1844,-1.8408 c 0.3534,-0.2031 0.6468,-0.4954 0.8509,-0.8475 0.204,-0.3521 0.3115,-0.7518 0.3115,-1.1585 0,-0.4067 -0.1075,-0.8064 -0.3115,-1.1585 -0.2041,-0.3522 -0.4975,-0.6444 -0.8509,-0.84747 z"
       fill="#FFF1C0"
       id="path4"
       style="fill:#000000" />
    <path
       d="M 16.2718,16.6098 12.5841,12.922 4.47799,21.0281 c 0.04181,0.057 0.08629,0.1123 0.13333,0.1655 0.23649,0.2675 0.53144,0.4771 0.86206,0.6128 0.33062,0.1357 0.68809,0.1938 1.04477,0.1697 0.35669,-0.0241 0.70307,-0.1296 1.01238,-0.3085 z"
       fill="#FFF1C0"
       id="path6"
       style="fill:#000000" />
    <path
       d="M 4.03438,19.3504 11.5234,11.8614 4.03438,4.37232 Z"
       fill="#FFF1C0"
       id="path8"
       style="fill:#000000" />
  </g>
</svg>

<svg width="24" height="24" viewBox="0 0 24 24" fill="none" xmlns="http://www.w3.org/2000/svg">
<path d="M16.1116 7.27313L7.52424 2.3255C7.2274 2.15617 6.89688 2.05402 6.55608 2.02627C6.21528 1.99852 5.87253 2.04585 5.5521 2.16491C5.23166 2.28396 4.94138 2.47184 4.70181 2.71523C4.66813 2.74945 4.63556 2.78465 4.60415 2.82077L12.5841 10.8007L16.1116 7.27313Z" fill="#FFF1C0"/>
<path d="M17.4566 8.0495L13.6447 11.8614L17.6237 15.8404L20.8081 13.9996C21.1615 13.7965 21.4549 13.5042 21.659 13.1521C21.863 12.8 21.9705 12.4003 21.9705 11.9936C21.9705 11.5869 21.863 11.1872 21.659 10.8351C21.4549 10.4829 21.1615 10.1907 20.8081 9.98763L17.4566 8.0495Z" fill="#FFF1C0"/>
<path d="M16.2718 16.6098L12.5841 12.922L4.47799 21.0281C4.5198 21.0851 4.56428 21.1404 4.61132 21.1936C4.84781 21.4611 5.14276 21.6707 5.47338 21.8064C5.804 21.9421 6.16147 22.0002 6.51815 21.9761C6.87484 21.952 7.22122 21.8465 7.53053 21.6676L16.2718 16.6098Z" fill="#FFF1C0"/>
<path d="M4.03438 19.3504L11.5234 11.8614L4.03438 4.37232V19.3504Z" fill="#FFF1C0"/>
</svg>
